X:1
T:Title
%%score ( 1 2 ) { 3 | 4 }
L:1/8
M:4/4
K:F
V:1 treble nm="Grand Piano, Unnamed-000"
V:2 treble 
V:3 treble nm="Choir Pad, Unnamed-001"
V:4 bass 
V:1
 [Fc]2 [Ac]2- [Ac][GB] [FA]2 | [Ac]2 [GB]2- [GB][FA] [EG]2 | [GB]2 [FA]2 [CF]2 D2 | %3
w: By~German~melody * * * *|||
 [DG]2 [CF]4 [CE]2 | [Ec]2 [Fc]2- [Fc][EB] [FA]2 | [Fc]2 B2- [E-B]/E/[FA] [EG]2 | %6
w: |||
 [GB]2 [FA]2 BG [CF]2 | [CE]2 [CF]6 | C2 [EG]2- [EG][CF] [CE]2 | C2 [CB]2- [CB][CA] [CG]2 | %10
w: ||||
 [CG]2 [CA]2 [DA]2 [D=B]2 | [F=B]2 [Ec]6 | [Ec]2 [Fc]2- [Fc][FB] [FA]2 | %13
w: |||
 [Gc]2 [FB]2- [FB][FA] [EG]2 | [GB]2 [FA]2 BG [CF]2 | [B,E]2 [A,F]6- | [A,F]2 z2 z4 |] %17
w: ||||
V:2
 x8 | x8 | x8 | x8 | x8 | z2 D2 z4 | z4 D2 z2 | x8 | x8 | x8 | x8 | x8 | x8 | x8 | z4 D2 z2 | x8 | %16
 x8 |] %17
V:3
 C2 C2- CC C2 | C2 C2- CC C2 | C2 C2[K:bass] A,2 B,2 | B,2 A,4 G,2 | G,2 A,2- A,B, C2 | %5
 A,2 B,2- B,[K:treble]C C2 | C2 C2 B,2[K:bass] A,2 | G,2 A,6 | C2 C2- CA, G,2 | E,2 G,2- G,F, E,2 | %10
 G,2 F,2 F,2 G,2 | G,2 G,6 | B,2 A,2- A,[K:treble]D C2 | C2 D2- DC C2 | C2 C2[K:bass] B,2 A,2 | %15
 G,2 F,6- | F,2 z2 z4 |] %17
V:4
 A,2 F,2- F,F, F,2 | F,2 E,2- E,F, C,2 | E,2 F,2 F,2 B,,2 | G,,2 C,4 C,2 | C,2 F,2- F,G, A,2 | %5
 F,2 G,2- G,F, C,2 | E,2 F,2 B,,2 C,2 | C,2 F,6 | C,2 C,2- C,C, C,2 | C,2 E,4 C,2 | E,2 z2 D,2 z2 | %11
 G,,2 C,6 | C,2 F,2- F,F, F,2 | E,2 D,2- D,F, C,2 | E,2 F,2 B,,2 C,2 | C,2 F,,6- | F,,2 z2 z4 |] %17

